X:10859
T:Miss Crioux's Reel. JC.046
M:C
L:1/8
Q:120
S:John Clare,Poet,Helpston. (1793-1864)
R:Strathspey
O:England
A:Northamptonshire
N:
Z:P Headford
K:D
A|(f>e) (d<A) (B<d)(B<d)|(A<d)(f<d)e2A2|(f>e) (d<A) (B<d)(B<d)|(A<d)(f<e
)d2:|!
(c>d)|(e<a)(g<a) (f<a)(g<a)|(g<a)(g<e)f2d2|e<a^g<a f<df<a|((3^gba) ((3g
fe)a2A2|!
(f<e)(d<A) (B<d)(B<d)|(A<d)(f<d)e2A2|(f<e)(d<A) (B<d)(B<d)|(A<d)(f<e)d2|
|
